!!!OTL: Ich stand mal auf hohem Berge, da geseh ich ins tiefe Tal
!!!ARE: Europa, Mitteleuropa, Lothringen, Weiler
!!!SCT: D0030
!!!YEM: Copyright 1995, estate of Helmut Schaffrath.
**kern
*ICvox
*Ivox
*M3/4
*k[b-e-]
*g:
{4d
=1
4.g
8g
4g
=2
4a
4b
4cc#
=3
4.dd
8cc#
4dd
=4
4a
4b-}
{8a
8b-
=5
4.dd
8ee-
4dd
=6
4.cc
8b
4dd
=7
4a
4b-
4r}
=8
{2.dd
=9
4cc#
4dd
4a
=10
4b-
4a
4g
=11
2cc
4ee-
=12
2dd}
{4dd
=13
4.g
8a
4b-
=14
4cc
4b-
4a
=15
2g}
==
!!!AGN: Liebes - Klage
!! Achttonskala (aeolisch mit fehlender Septime, in die Dominanttonart
!!    (Ionisch) modulierend ); Inzipit = Variante zum Lied
!!!ONB: ESAC (Essen Associative Code) Database: DVA
!!!AMT: simple triple
!!!AIN: vox
!!!EED: Helmut Schaffrath
!!!EEV: 1.0
*-
